X:1
T: Brudmarsch från Västra Fors
R: Marsch
S: Perjos Lars Halvarsson|utlärd av Perjos Lars Halvarsson
Z: Karin Arén
M: 4/4
L: 1/8
K: A
e|: va2 (.a.a) a(a/b/) c'a | Tb>e g(g/a/) g2 ce/g/ | vf2 d(3(e/f/g/) a2 f(e/d/) |1
(ce) (.e.e) ve3 e :|2 (ce) (.e.e) ve3 c |] d>c (de) (e=f) f(e/d/) | e>c ce (e=g) gg/b/ | 
vaf d(e/=g/) fe dc | a>c (cd) u(d2 [A,D]) u.f |: ve>(d c/d/e/f/) =g>u(f g)g/b/ |   
vaf d(e/=g/) f>e dc |1 a>c (cd) ud3 u.f :|2 a>c (cd) ud4 |]

